dhis-2/dhis-support/dhis-support-system/src/main/resources/SVGs/family_planning_positive.svg

<?xml version="1.0" encoding="UTF-8" standalone="no"?>
<!-- Created with Inkscape (http://www.inkscape.org/) -->
<svg id="svg8" xmlns:rdf="http://www.w3.org/1999/02/22-rdf-syntax-ns#" xmlns="http://www.w3.org/2000/svg" xmlns:osb="http://www.openswatchbook.org/uri/2009/osb" height="48" width="48" version="1.1" xmlns:cc="http://creativecommons.org/ns#" viewBox="0 0 12.7 12.7" xmlns:dc="http://purl.org/dc/elements/1.1/">
 <title id="title4753">UIO-icon</title>
 <metadata id="metadata5">
  <rdf:RDF>
   <cc:Work rdf:about="">
    <dc:format>image/svg+xml</dc:format>
    <dc:type rdf:resource="http://purl.org/dc/dcmitype/StillImage"/>
    <dc:title>UIO-icon</dc:title>
    <dc:creator>
     <cc:Agent>
      <dc:title>Joaquín Urbano</dc:title>
     </cc:Agent>
    </dc:creator>
    <dc:rights>
     <cc:Agent>
      <dc:title>GPL</dc:title>
     </cc:Agent>
    </dc:rights>
   </cc:Work>
  </rdf:RDF>
 </metadata>
 <g id="layer1" transform="translate(0,-284.3)">
  <path id="path3058" d="m13.689 8.0977c-1.933-3.5e-8 -3.5 1.567-3.5 3.5-3e-8 1.933 1.567 3.5 3.5 3.5 1.933 3e-8 3.5-1.567 3.5-3.5 3e-8 -1.933-1.567-3.5-3.5-3.5zm10.586 0v0.0019531c-0.046519-0.00063345-0.093818-0.000528-0.14062 0-0.71853 0.0094488-1.42 0.15976-2.0703 0.43359s-1.249 0.67229-1.7578 1.1797c-0.54008 0.53857-0.94621 1.1615-1.2168 1.8262-0.27059 0.66463-0.40722 1.3712-0.4082 2.0781-0.00098674 0.70691 0.13361 1.4127 0.40234 2.0781 0.26873 0.66541 0.67432 1.29 1.2129 1.8301 0.53857 0.53952 1.1596 0.94461 1.8242 1.2148 0.66464 0.27023 1.3712 0.40547 2.0781 0.40625 0.70691 0.00078349 1.4147-0.13353 2.0801-0.40234 0.6654-0.26882 1.29-0.67237 1.8301-1.2109 0.54004-0.53857 0.94426-1.1597 1.2148-1.8242 0.27058-0.66451 0.40721-1.3733 0.4082-2.0801 0.00099528-0.70674-0.13362-1.4128-0.40234-2.0781-0.269-0.665-0.672-1.288-1.211-1.8283-0.511-0.5122-1.11-0.9141-1.764-1.1895-0.653-0.2754-1.358-0.425-2.08-0.4355zm10.451 0c-1.933 0-3.5 1.567-3.5 3.5s1.567 3.5 3.5 3.5 3.5-1.567 3.5-3.5-1.567-3.5-3.5-3.5zm-10.538 1.1289v0.0019531c0.064559 0 0.12861 0.00011476 0.19336 0.0019531 0.55356 0.021581 1.0929 0.14706 1.5918 0.36523 0.49889 0.21817 0.95809 0.52991 1.3496 0.92187 0.39111 0.39317 0.69182 0.8441 0.9043 1.3262 0.21248 0.48207 0.3364 0.99469 0.36719 1.5137 0.030788 0.51898-0.0316 1.043-0.18555 1.5469-0.15395 0.50389-0.40046 0.98703-0.74219 1.4238l-6.1562-6.1758c0.382-0.2981 0.81-0.5286 1.262-0.6852 0.453-0.1566 0.93-0.2389 1.415-0.2402zm2.123 1.498c-0.40174-0.002363-0.89807 0.1015-1.2637 0.39648-0.1828 0.14749-0.33334 0.34207-0.42188 0.5957-0.088532 0.25364-0.11529 0.56628-0.052734 0.94727-0.047836 0.026948-0.076172 0.062609-0.080078 0.11328l0.54102 0.53125c0.023836 0 0.043471-0.010908 0.054688-0.041016 0.54232 0.11445 0.9563 0.040278 1.2676-0.14062 0.31128-0.1809 0.52028-0.46784 0.64648-0.77734s0.1711-0.6427 0.1582-0.91406c-0.012894-0.27136-0.083438-0.48235-0.18945-0.54883-0.088248-0.091589-0.34575-0.15828-0.66016-0.16016zm-5.5625 0.19141l6.158 6.178c-0.43786 0.34057-0.9233 0.58592-1.4277 0.73828-0.50444 0.15236-1.0279 0.21224-1.5469 0.17969-0.518-0.033-1.032-0.157-1.513-0.371-0.482-0.215-0.932-0.52-1.324-0.912-0.391-0.394-0.694-0.845-0.906-1.327-0.213-0.482-0.335-0.994-0.366-1.513-0.030958-0.51898 0.027821-1.043 0.18164-1.5469 0.15382-0.50388 0.40241-0.98899 0.74414-1.4258zm2.2109 2.7129c-0.12151 0.06384-0.14969 0.19017-0.13477 0.3457 0.014925 0.15553 0.072299 0.33988 0.125 0.52148 0.052701 0.18161 0.099978 0.35987 0.091797 0.50195s-0.072512 0.24821-0.24023 0.28516c-0.75261-0.005027-1.0927 0.16197-1.2441 0.39258-0.15145 0.23061-0.11279 0.52524-0.10742 0.77539 0.078445-0.3565 0.14745-0.566 0.33203-0.68555s0.48328-0.14976 1.0195-0.14844c0.27457-0.053541 0.51808-0.14504 0.65625-0.36328s0.17126-0.5642 0.027344-1.123zm-9.6172 2.3301-3.1875 0.001953v0.008c-0.5724 0.011-1.119 0.327-1.3884 0.879l-3.8691 7.925c-0.38289 0.78455-0.058027 1.7246 0.72656 2.1074 0.78459 0.3829 1.7226 0.060096 2.1055-0.72461l2.4258-4.9707v17.176c0 0.87303 0.70118 1.5762 1.5742 1.5762 0.87303 0 1.5762-0.70314 1.5762-1.5762v-9.267h0.75977v9.2676c0 0.87303 0.70314 1.5762 1.5762 1.5762 0.87303 0 1.5762-0.70314 1.5762-1.5762v-17.188l2.432 4.982c0.14526 0.29765 0.37197 0.52826 0.63867 0.67969l-1.6797 3.4414c-0.2439 0.49975-0.036883 1.0999 0.46289 1.3438s1.0959 0.036956 1.3398-0.46289l1.5449-3.166v10.941c0 0.55611 0.4478 1.0039 1.0039 1.0039 0.55611 0 1.0039-0.4478 1.0039-1.0039v-5.9043h0.48438v5.9043c0 0.55611 0.4478 1.0039 1.0039 1.0039 0.55611 0 1.0039-0.4478 1.0039-1.0039v-10.949l1.5488 3.1738c0.24389 0.49977 0.84202 0.70677 1.3418 0.46289 0.1731-0.084478 0.29464-0.22013 0.39062-0.37109h1.4551v7.1113c0 0.87303 0.70118 1.5762 1.5742 1.5762 0.87303 0 1.5762-0.70314 1.5762-1.5762v-7.111h0.75977v7.1113c0 0.87303 0.70314 1.5762 1.5762 1.5762 0.87303 0 1.5762-0.70314 1.5762-1.5762v-7.111h2.2207c-1.2525-4.1753-4.9034-15.573 0.21094-5.0938 0.38289 0.78459 1.3228 1.1075 2.1074 0.72461 0.78459-0.3829 1.1075-1.3228 0.72461-2.1074l-3.869-7.925c-0.2705-0.55431-0.8192-0.87338-1.3945-0.88086v-0.007813h-3.875l-3.1875 0.001953v0.007813c-0.5727 0.011339-1.1193 0.32691-1.3887 0.87891l-3.8164 7.8164h-3.5586l-3.8164-7.8164c-0.2705-0.55431-0.81919-0.87338-1.3945-0.88086v-0.007813h-3.1875zm10.865 3.697c-1.2306 0.00051726-2.228 0.99795-2.2285 2.2285-0.00056112 1.2313 0.99719 2.23 2.2285 2.2305 1.232 0.001 2.231-0.998 2.231-2.23-0.001-1.232-1-2.229-2.231-2.229zm-0.042969 0.50195c0.96291 0.00084314 1.7433 0.78123 1.7441 1.7441 0.00023439 0.96368-0.78047 1.7452-1.7441 1.7461-0.96444 0.00023424-1.7463-0.78166-1.7461-1.7461 0.00084414-0.96368 0.78242-1.7444 1.7461-1.7441zm5.459 9.7402-1.4941-3.0625c0.26633-0.15143 0.49147-0.38202 0.63672-0.67969 3.9918-10.429 2.1592 0.73385 0.85742 3.7422zm-3.373-4.701h0.32031c0.23344 0.006316 0.24845 0.089745 0.35938 0.31445l0.51562 1.043c0.006011 0.01149 0.016013 0.015627 0.021484 0.027344l1.9004 3.8496c0.15928 0.32267 0.088027 0.61296-0.20703 0.7832-0.25251 0.13836-0.55663 0.00126-0.67383-0.20703-0.67361-1.3906-0.92286-1.9771-1.5703-3.252-0.34261-0.69116-0.98244-0.41945-0.97461 0.22852-0.0006503 1.6349 0.033831 3.4077 0.003906 5.1719-0.033257 1.9606 0.001365 3.8857-0.001953 5.7871 0.011692 0.19781-0.16326 0.46867-0.4707 0.47656-0.30974-0.008136-0.5098-0.26735-0.50977-0.49414 0-2.0995-0.011732-4.3136-0.001953-6.4043l-1.5117-0.003906c0 2.0992 0.013256 4.3281 0 6.4219 0 0.35984-0.30971 0.4827-0.4707 0.48438-0.15941 0.001654-0.51953-0.1304-0.51953-0.49023 0-2.2006-0.003666-4.006 0.003906-5.8867 0.005662-1.4063 0.005457-3.5048 0.005859-5.0547-0.080466-0.74652-0.65066-0.76415-0.97852-0.2207-0.61277 1.2107-0.89386 1.8358-1.5312 3.1484-0.1938 0.38503-0.60245 0.27524-0.72266 0.20508-0.1508-0.092885-0.29404-0.35702-0.13477-0.67969l1.6504-3.3887c0.005472-0.01149 0.24023-0.50977 0.24023-0.50977l0.51-1.025c0.11946-0.24208 0.14571-0.3305 0.64062-0.31641z" fill-rule="evenodd" transform="matrix(.26458 0 0 .26458 0 284.3)" fill="#333"/>
 </g>
</svg>

<svg width="48" height="48" viewBox="0 0 48 48" fill="none" xmlns="http://www.w3.org/2000/svg">
<path fill-rule="evenodd" clip-rule="evenodd" d="M13.6889 8.09756C11.7559 8.09756 10.189 9.66454 10.189 11.5975C10.189 13.5305 11.7559 15.0975 13.6889 15.0975C15.6219 15.0975 17.1889 13.5305 17.1889 11.5975C17.1889 9.66454 15.6219 8.09756 13.6889 8.09756ZM24.2748 8.09756V8.09951C24.2283 8.09888 24.181 8.09898 24.1342 8.09951C23.4156 8.10896 22.7142 8.25927 22.0639 8.5331C21.4136 8.80692 20.8149 9.20538 20.3061 9.71278C19.766 10.2513 19.3599 10.8743 19.0893 11.539C18.8187 12.2036 18.6821 12.9101 18.6811 13.617C18.6801 14.3239 18.8147 15.0297 19.0835 15.6951C19.3522 16.3605 19.7578 16.9851 20.2963 17.5252C20.8349 18.0647 21.4559 18.4698 22.1205 18.74C22.7852 19.0102 23.4917 19.1454 24.1986 19.1462C24.9055 19.147 25.6133 19.0127 26.2787 18.7439C26.9441 18.4751 27.5687 18.0715 28.1088 17.533C28.6488 16.9944 29.053 16.3733 29.3235 15.7088C29.5941 15.0443 29.7307 14.3355 29.7317 13.6287C29.7327 12.922 29.5981 12.216 29.3294 11.5507C29.0604 10.8857 28.6574 10.2627 28.1184 9.72239C27.6074 9.2102 27.0084 8.8083 26.3544 8.53291C25.7014 8.25751 24.9964 8.10791 24.2745 8.09741L24.2748 8.09756ZM34.7257 8.09756C32.7927 8.09756 31.2257 9.66454 31.2257 11.5975C31.2257 13.5305 32.7927 15.0975 34.7257 15.0975C36.6586 15.0975 38.2256 13.5305 38.2256 11.5975C38.2256 9.66454 36.6586 8.09756 34.7257 8.09756ZM24.1878 9.22644V9.2284C24.2523 9.2284 24.3164 9.22851 24.3811 9.23035C24.9347 9.25193 25.474 9.37741 25.9729 9.59558C26.4718 9.81374 26.931 10.1255 27.3225 10.5174C27.7136 10.9106 28.0143 11.3615 28.2268 11.8436C28.4393 12.3257 28.5632 12.8383 28.594 13.3573C28.6248 13.8763 28.5624 14.4003 28.4084 14.9042C28.2545 15.4081 28.008 15.8912 27.6662 16.328L21.5101 10.1522C21.8921 9.85414 22.3201 9.62365 22.7721 9.46705C23.2251 9.31045 23.7021 9.22815 24.1871 9.22685L24.1878 9.22644ZM26.3108 10.7244C25.909 10.7221 25.4127 10.8259 25.0471 11.1209C24.8643 11.2684 24.7137 11.463 24.6252 11.7166C24.5367 11.9702 24.5099 12.2829 24.5725 12.6639C24.5246 12.6908 24.4963 12.7265 24.4924 12.7771L25.0334 13.3084C25.0572 13.3084 25.0769 13.2975 25.0881 13.2674C25.6304 13.3818 26.0444 13.3076 26.3557 13.1267C26.6669 12.9458 26.8759 12.6589 27.0021 12.3494C27.1283 12.0399 27.1732 11.7067 27.1603 11.4354C27.1474 11.164 27.0769 10.953 26.9709 10.8865C26.8826 10.795 26.6251 10.7283 26.3107 10.7264L26.3108 10.7244ZM20.7483 10.9158L26.9062 17.0938C26.4684 17.4343 25.983 17.6797 25.4786 17.832C24.9741 17.9844 24.4507 18.0443 23.9317 18.0117C23.4137 17.9787 22.8997 17.8547 22.4187 17.6407C21.9367 17.4257 21.4867 17.1207 21.0947 16.7287C20.7037 16.3347 20.4007 15.8837 20.1887 15.4017C19.9757 14.9198 19.8537 14.4078 19.8227 13.8888C19.7918 13.3698 19.8506 12.8458 20.0044 12.3419C20.1582 11.838 20.4068 11.3529 20.7485 10.9161L20.7483 10.9158ZM22.9592 13.6287C22.8377 13.6925 22.8095 13.8189 22.8244 13.9744C22.8394 14.1299 22.8967 14.3143 22.9494 14.4959C23.0021 14.6775 23.0494 14.8557 23.0412 14.9978C23.033 15.1399 22.9687 15.246 22.801 15.283C22.0484 15.2779 21.7083 15.4449 21.5569 15.6755C21.4055 15.9062 21.4441 16.2008 21.4495 16.4509C21.5279 16.0944 21.5969 15.8849 21.7815 15.7654C21.9661 15.6458 22.2648 15.6156 22.801 15.6169C23.0756 15.5634 23.3191 15.4719 23.4572 15.2537C23.5954 15.0354 23.6285 14.6895 23.4846 14.1307L22.9592 13.6287ZM13.3421 15.9588L10.1547 15.9607V15.9687C9.58226 15.9797 9.03567 16.2957 8.76627 16.8477L4.89722 24.7726C4.51434 25.5572 4.8392 26.4972 5.62377 26.88C6.40835 27.2629 7.34635 26.9401 7.72925 26.1554L10.155 21.1847V38.3605C10.155 39.2336 10.8562 39.9367 11.7292 39.9367C12.6022 39.9367 13.3054 39.2336 13.3054 38.3605V29.0936H14.0651V38.3611C14.0651 39.2342 14.7683 39.9373 15.6413 39.9373C16.5143 39.9373 17.2175 39.2342 17.2175 38.3611V21.1733L19.6495 26.1553C19.7947 26.4529 20.0214 26.6835 20.2881 26.835L18.6085 30.2763C18.3646 30.7761 18.5716 31.3762 19.0713 31.6201C19.5711 31.864 20.1672 31.6571 20.4111 31.1572L21.956 27.9913V38.9321C21.956 39.4882 22.4038 39.936 22.9599 39.936C23.516 39.936 23.9638 39.4882 23.9638 38.9321V33.0279H24.4481V38.9321C24.4481 39.4882 24.8959 39.936 25.452 39.936C26.0081 39.936 26.4559 39.4882 26.4559 38.9321V27.9833L28.0047 31.157C28.2486 31.6568 28.8467 31.8638 29.3465 31.6199C29.5196 31.5354 29.6411 31.3998 29.7371 31.2488H31.1922V38.36C31.1922 39.2331 31.8934 39.9362 32.7664 39.9362C33.6394 39.9362 34.3425 39.2331 34.3425 38.36V31.2491H35.1023V38.3603C35.1023 39.2333 35.8054 39.9365 36.6785 39.9365C37.5515 39.9365 38.2547 39.2334 38.2547 38.3603V31.2494H40.4753C39.2229 27.0742 35.572 15.6766 40.6863 26.1557C41.0692 26.9403 42.0091 27.2632 42.7937 26.8803C43.5782 26.4974 43.9011 25.5575 43.5183 24.7729L39.6493 16.848C39.3788 16.2937 38.8301 15.9746 38.2548 15.9672V15.9594H34.3799L31.1924 15.9613V15.9691C30.6197 15.9805 30.0731 16.296 29.8037 16.848L25.9874 24.6643H22.4288L18.6125 16.848C18.342 16.2937 17.7933 15.9746 17.218 15.9672V15.9594H14.0305L13.3421 15.9588ZM24.207 19.6557C22.9764 19.6562 21.979 20.6537 21.9785 21.8842C21.9779 23.1155 22.9757 24.1142 24.207 24.1147C25.439 24.1157 26.438 23.1167 26.438 21.8847C26.437 20.6527 25.438 19.6557 24.207 19.6557ZM24.164 20.1577C25.1269 20.1585 25.9073 20.9389 25.9081 21.9017C25.9083 22.8654 25.1276 23.6469 24.164 23.6478C23.1996 23.6481 22.4177 22.8662 22.4179 21.9017C22.4188 20.9381 23.2003 20.1574 24.164 20.1577ZM29.6229 29.8977L28.1289 26.8353C28.3952 26.6839 28.6203 26.4533 28.7656 26.1556C32.7573 15.7267 30.9247 26.8894 29.623 29.8978L29.6229 29.8977ZM26.25 25.1968H26.5703C26.8037 25.2031 26.8187 25.2865 26.9297 25.5113L27.4453 26.5542C27.4513 26.5657 27.4613 26.5699 27.4668 26.5816L29.3671 30.4311C29.5264 30.7538 29.4552 31.0441 29.1601 31.2143C28.9076 31.3527 28.6035 31.2156 28.4863 31.0073C27.8127 29.6167 27.5634 29.0302 26.916 27.7553C26.5734 27.0642 25.9336 27.3359 25.9414 27.9839C25.9408 29.6187 25.9752 31.3915 25.9453 33.1557C25.9121 35.1163 25.9467 37.0413 25.9434 38.9427C25.9551 39.1405 25.7801 39.4114 25.4727 39.4193C25.1629 39.4111 24.9629 39.1519 24.9629 38.9251C24.9629 36.8257 24.9512 34.6116 24.961 32.5209L23.4493 32.517C23.4493 34.6162 23.4625 36.8451 23.4493 38.9388C23.4493 39.2987 23.1396 39.4215 22.9786 39.4232C22.8192 39.4249 22.4591 39.2928 22.4591 38.933C22.4591 36.7324 22.4554 34.927 22.463 33.0464C22.4686 31.6401 22.4684 29.5416 22.4688 27.9917C22.3884 27.2452 21.8182 27.2276 21.4903 27.771C20.8776 28.9817 20.5965 29.6068 19.9591 30.9194C19.7653 31.3044 19.3567 31.1946 19.2365 31.1245C19.0857 31.0316 18.9424 30.7674 19.1017 30.4448L20.7521 27.0561C20.7576 27.0446 20.9923 26.5464 20.9923 26.5464L21.5023 25.5214C21.6218 25.2793 21.648 25.1909 22.1429 25.205L26.25 25.1968Z" fill="#333333"/>
</svg>
